X:1
T:New Mown Meadows
L:1/8
Q:1/4=120
M:4/4
K:A
A2 |: BE ED EF GA | B2 BB BA FA | A B2 E EF GA | 
AB BA FA Ac | BE ED EF GA | B2 BB BA Bc | dB Bd c2 cB |1 A2 BA FA Ac :|2 A2 BA FA Af |
|: e2 ce fe ce | e2 cA BA FA | e3 f fe cB | AB BA FA Af | 
e3 f fe a2 | eA cA BA FA | Bd dB c2 cB |1 AB BA FA Af :|2 AB BA FA Ac |] 

